images/whitenoise.svg

<?xml version="1.0" encoding="UTF-8"?><svg id="uuid-106016c3-18b4-47e0-95c8-a9ddc7124286" xmlns="http://www.w3.org/2000/svg" viewBox="0 0 138.38 131.29"><g id="uuid-9f4d86f2-2e56-4e5d-aa25-df6a20674102"><path d="M131,37H10c-.98,0-3.57,.17-6,2C.23,41.85,.02,46.37,0,47V121.61c.11,.93,.56,3.85,3,6.39,2.62,2.72,5.79,3.19,6.68,3.29h118.82c.77-.1,5.9-.86,8.5-5.29,1.03-1.75,1.31-3.46,1.38-4.6V49c0-1.27-.16-3.54-1.38-6-1.83-3.69-4.87-5.43-6-6Zm-28,74c-.1,.64-.47,2.42-2,4-1.55,1.61-3.36,2.03-3.99,2.14H18.01c-.51-.03-1.81-.18-3.01-1.14-1.78-1.42-1.97-3.5-2-3.87V58c0-.92,.14-3.54,2-6,1.31-1.73,2.89-2.6,3.74-3H95.78c1.02,.44,2.69,1.32,4.22,3,2.12,2.32,2.77,4.84,3,6v53Z" fill="#636768"/><polygon points="63.95 37 45 18 48 16 67 35 104 0 107 2 69.19 37 63.95 37" fill="#636768"/></g></svg>

<svg xmlns="http://www.w3.org/2000/svg" viewBox="0 0 138.38 131.29"><defs><style>.cls-1{fill:#636768;}</style></defs><g id="Camada_2" data-name="Camada 2"><g id="whitenoise"><path class="cls-1" d="M131,37H10a10.22,10.22,0,0,0-6,2,10.76,10.76,0,0,0-4,8v74.61A11.17,11.17,0,0,0,3,128a11.13,11.13,0,0,0,6.68,3.29H128.5c.77-.1,5.9-.86,8.5-5.29a10.29,10.29,0,0,0,1.38-4.6V49A13.33,13.33,0,0,0,137,43,13.58,13.58,0,0,0,131,37Zm-28,74a7.44,7.44,0,0,1-6,6.14H18A5.37,5.37,0,0,1,15,116a5.61,5.61,0,0,1-2-3.87V58a9.84,9.84,0,0,1,5.74-9h77A12.21,12.21,0,0,1,100,52a12.47,12.47,0,0,1,3,6Z"/><polygon class="cls-1" points="63.95 37 45 18 48 16 67 35 104 0 107 2 69.19 37 63.95 37"/></g></g></svg>
